X:1
L:1/8
M:2/2
K:D
 G | FGAB Adfd | egBe cAAG | FGAB Adfd | cAB^G A2- A>G | FGAB Adfd | egBe cAAG | FGAB Adfa | 
 gedc d2- d || g | fgab afed | cded cBAG | FGAB Adfd | cAB^G A2- A>c | BGBd AFAd | gfed cBAG | 
 FGAB Adfa | gedc [Fd]2- [Fd] ||
